X:1
T:Smiling Polly
T:Keel Row
M:2/4
L:1/8
S:Chappell \`i Popular Music of the Olden Time (1859)
Z:AK/Fiddlers Companion 
K:F>B|A>F FA|B2 GB|A>F FA|G>E C>B|A>F FA|B2 GB|A>F G>E|F3||B|
A<c cv|d2 c>B|A2 FA|GE C>B|A<c cf|d2 cB|A<F G>E|F3||
